rospo-icon-theme-newyear-common/64x64/places/folder-violet-desktop.svg

<svg height="64" width="64" xmlns="http://www.w3.org/2000/svg"><rect height="45" opacity=".2" rx="2.5" width="50" x="7" y="11"/><path d="m7 14.9v37.6c0 1.385 1.115 2.5 2.5 2.5h45c1.385 0 2.5-1.115 2.5-2.5v-37.6z" fill="#a674de"/><path d="m9.5 10c-1.385 0-2.5 1.115-2.5 2.5v2.5h50v-2.5c0-1.385-1.115-2.5-2.5-2.5z" fill="#3a284d"/><path d="m21.6 50c-1.44 0-2.6 1.115-2.6 2.5v2.5h26v-2.5c0-1.385-1.16-2.5-2.6-2.5z" fill="#3a284d"/><path d="m9.5 10c-1.385 0-2.5 1.115-2.5 2.5v1c0-1.385 1.115-2.5 2.5-2.5h45c1.385 0 2.5 1.115 2.5 2.5v-1c0-1.385-1.115-2.5-2.5-2.5z" fill="#fff" opacity=".1"/></svg>

<svg xmlns="http://www.w3.org/2000/svg" width="64" height="64" version="1.1">
 <rect style="opacity:0.2" width="50" height="45" x="7" y="11" rx="2.5" ry="2.5"/>
 <path style="fill:#a674de" d="M 7,14.9 7,52.5 C 7,53.885 8.115,55 9.5,55 l 45,0 c 1.385,0 2.5,-1.115 2.5,-2.5 l 0,-37.6 z"/>
 <path style="fill:#3a284d" d="M 9.5,10 C 8.115,10 7,11.115 7,12.5 V 15 H 57 V 12.5 C 57,11.115 55.885,10 54.5,10 Z"/>
 <path style="fill:#3a284d" d="M 21.6,50 C 20.16,50 19,51.115 19,52.5 V 55 H 45 V 52.5 C 45,51.115 43.84,50 42.4,50 Z"/>
 <path style="fill:#ffffff;opacity:0.1" d="M 9.5 10 C 8.115 10 7 11.115 7 12.5 L 7 13.5 C 7 12.115 8.115 11 9.5 11 L 54.5 11 C 55.885 11 57 12.115 57 13.5 L 57 12.5 C 57 11.115 55.885 10 54.5 10 L 9.5 10 z"/>
</svg>
